!!!COA:	Josquin des Prez
!!!CDT:	~1450-1521/08/27
!!!OTL:	Illumina oculos
!!!AGN:	Motet
!!!SCT:	NJE 17.2
!!!SCA:	New Josquin Edition 17.2
!!!voices:	4
**kern	**text	**kern	**text	**kern	**text	**kern	**text
*staff4	*staff4	*staff3	*staff3	*staff2	*staff2	*staff1	*staff1
*Ivox	*	*Ivox	*	*Ivox	*	*Ivox	*
*I"Bassus	*	*I"Tenor	*	*I"Altus	*	*I"Discant	*
*I'B	*	*I'T	*	*I'A	*	*I'D	*
*>[A,B]	*>[A,B]	*>[A,B]	*>[A,B]	*>[A,B]	*>[A,B]	*>[A,B]	*>[A,B]
*>A	*>A	*>A	*>A	*>A	*>A	*>A	*>A
*clefF4	*	*clefGv2	*	*clefGv2	*	*clefG2	*
*k[b-]	*	*k[b-]	*	*k[b-]	*	*k[b-]	*
*M3/1	*	*M3/1	*	*M3/1	*	*M3/1	*
*met(O)	*	*met(O)	*	*met(O)	*	*met(O)	*
!!section: Illumina oculos meos
!!!OMD: Illumina oculos meos
=1-	=1-	=1-	=1-	=1-	=1-	=1-	=1-
0C	Il-	1r	.	1r	.	0.r	.
.	.	1r	.	0c	Il-	.	.
[1F	-lu-	[1F	Il-	.	.	.	.
=2	=2	=2	=2	=2	=2	=2	=2
2F\]	.	1F]	.	1.f	-lu-	0f	Il-
2D\	-mi-	.	.	.	.	.	.
1D	-na	1.B-	-lu-	.	.	.	.
.	.	.	.	2d\	-mi-	.	.
2r	.	.	.	1d	-na	[1b-	-lu-
[2G\	o-	2G/	-mi-	.	.	.	.
=3	=3	=3	=3	=3	=3	=3	=3
2G\]	.	1G	-na	2r	.	2b-\]	.
2G\	-cu-	.	.	1g	o-	2g/	-mi-
1.E	-los	2r	.	.	.	1g	-na
.	.	1c	o-	2g\	-cu-	.	.
.	.	.	.	[1e	-los	2r	.
2C/	me-	2c\	-cu-	.	.	[2cc\	o-
=4	=4	=4	=4	=4	=4	=4	=4
1C	-os	1.A	-los	2e\]	.	2cc\]	.
.	.	.	.	2c\	me-	2cc\	-cu-
2r	.	.	.	1c	-os	1.a	-los
2C/	ne	2F/	me-	.	.	.	.
[1F	un-	1F	-os	2r	.	.	.
.	.	.	.	2c\	ne	2f/	me-
=5	=5	=5	=5	=5	=5	=5	=5
2F\]	.	2r	.	1.f	un-	1f	-os
2D\	-quam	2F/	ne	.	.	.	.
2D\	ob-	1.B-	un-	.	.	2r	.
2G\	-dor-	.	.	2d\	-quam	2f/	ne
4G\	-mi-	.	.	2d\	ob-	[1b-	un-
4F\	.	.	.	.	.	.	.
4E\	.	2G/	-quam	2g\	-dor-	.	.
4D\	.	.	.	.	.	.	.
=6	=6	=6	=6	=6	=6	=6	=6
1C	-am	2G/	ob-	4g\	-mi-	2b-\]	.
.	.	.	.	4f\	.	.	.
.	.	2c\	-dor-	4e\	.	2g/	-quam
.	.	.	.	4d\	.	.	.
2r	.	4c\	-mi-	1c	-am	2g/	ob-
.	.	4B-\	.	.	.	.	.
2C/	in	4A/	.	.	.	2cc\	-dor-
.	.	4G/	.	.	.	.	.
2D\	mor-	1F	-am	2r	.	4cc\	-mi-
.	.	.	.	.	.	4b-\	.
[2F\	.	.	.	2c\	in	4a/	.
.	.	.	.	.	.	4g/	.
=7	=7	=7	=7	=7	=7	=7	=7
2F\]	.	2r	.	2.A/	mor-	1f	-am
4E\	.	2F/	in	.	.	.	.
4D\	.	.	.	4B-\	.	.	.
2E\	.	2G/	mor-	2c\	.	2r	.
1D	.	2B-\	.	2d\	.	1f	in
.	.	2A/	.	2A/	.	.	.
2GG/	.	[2B-\	.	[2d\	.	[2d/	mor-
=8	=8	=8	=8	=8	=8	=8	=8
2G\	.	2B-\]	.	2d\]	.	2d/]	.
2E-\	.	4A/	.	2c\	.	1g	.
.	.	4G/	.	.	.	.	.
1D	-te	1A	.	1d	-te	.	.
.	.	.	.	.	.	2f#i/	.
2r	.	[1G	-te	2r	.	1g	-te
2GG/	Ne-	.	.	2B-\	Ne-	.	.
=9	=9	=9	=9	=9	=9	=9	=9
2C/	-quan-	1G]	.	1e-i	-quan-	2r	.
2C/	-do	.	.	.	.	2g/	Ne-
2BB-/	di-	2r	.	1d	-do	2b-\	-quan-
2BB-/	-cat	2D/	Ne-	.	.	2b-\	-do
1E-i	mi-	2G/	-quan-	2.B-\	di-	2b-\	di-
.	.	2G/	-do	.	.	4a/	-cat
.	.	.	.	4c\	.	4g/	.
=10	=10	=10	=10	=10	=10	=10	=10
1D	-hi	2F/	di-	1d	-cat	2a/	mi-
.	.	2F/	-cat	.	.	2f/	.
2r	.	1B-	mi-	2r	.	1g	-hi
2BB-/	i-	.	.	2d\	mi-	.	.
2C/	-ni-	1A	-hi	2e\	-hi	2r	.
2D\	-mi-	.	.	2d\	i-	2f/	i-
=11	=11	=11	=11	=11	=11	=11	=11
2E-i\	-cus	2r	.	2G/	-ni-	2g/	-ni-
2D\	me-	2F/	i-	2d\	.	2a/	-mi-
2GG/	.	2G/	-ni-	2.B-\	-mi-	2b-\	-cus
2D\	.	2A/	-mi-	.	.	2.a/	me-
.	.	.	.	4c\	.	.	.
4GG/	.	1B-	-cus	2d\	.	.	.
4AA/	.	.	.	.	.	4g/	.
4BB-/	.	.	.	2e-\	-cus	[2g/	.
4C/	.	.	.	.	.	.	.
=12	=12	=12	=12	=12	=12	=12	=12
1D	.	1A	me-	1d	me-	2g/]	.
.	.	.	.	.	.	2f#i/	.
2E-i\	.	0G	-us	2B-\	-us	[0g	-us
1C	.	.	.	1e-i	pre-	.	.
4BB-/	.	.	.	4d\	.	.	.
4AA/	.	.	.	4c\	.	.	.
=13	=13	=13	=13	=13	=13	=13	=13
2GG/	-us	1r	.	2B-\	-va-	0.g]	.
2C/	pre-	.	.	2c\	-lu-	.	.
1.E-	-va-	1G	pre-	[0B-	-i	.	.
.	.	[1B-	-va-	.	.	.	.
2E-i\	-lu-	.	.	.	.	.	.
=14	=14	=14	=14	=14	=14	=14	=14
2D\	-i	2B-\]	.	1B-]	.	1r	.
2BB-/	ad-	2B-\	-lu-	.	.	.	.
2C/	-ver-	2A/	-i	1r	.	1r	.
2D\	-sus	2F/	ad-	.	.	.	.
1E-i	e-	2.G/	-ver-	1r	.	1r	.
.	.	4A/	-sus	.	.	.	.
=15	=15	=15	=15	=15	=15	=15	=15
1D	-um	1B-	e-	1r	.	1r	.
2r	.	1A	-um	1r	.	2r	.
1F	ad-	.	.	.	.	1a	pre-
.	.	2r	.	1r	.	.	.
2E\	.	[2c\	ad-	.	.	2g/	.
=16	=16	=16	=16	=16	=16	=16	=16
2C/	-ver-	2c\]	.	2r	.	2e/	-va-
2D\	-sus	2B-\	.	1B-	ad-	2f/	-lu-
1E-i	e-	2G/	-ver-	.	.	2g/	-i
.	.	2A/	-sus	2c\	.	2c/	ad-
*	*	*	*	*M3/1	*	*	*
*	*	*	*	*met(3)	*	*	*
2D\	.	1B-	e-	3.d\	.	2f/	-ver-
2BB-/	.	.	.	6B-\	.	2d/	.
.	.	.	.	3d\	.	.	.
=17	=17	=17	=17	=17	=17	=17	=17
2C/	.	2.A/	.	3.c\	.	2e/	.
2AA/	.	.	.	6A/	.	2.f/	.
.	.	.	.	3c\	.	.	.
.	.	4G/	.	.	.	.	.
2BB-/	.	2F/	.	3.B-\	.	.	.
.	.	.	.	.	.	4e/	.
2GG/	.	2G/	.	6G/	.	1d	.
.	.	.	.	3B-\	.	.	.
*	*	*	*	*M3/1	*	*	*
*	*	*	*	*met(O)	*	*	*
1AA	.	1E	.	1A	.	.	.
.	.	.	.	.	.	2c#i/	-sus
=18	=18	=18	=18	=18	=18	=18	=18
1D	-um	1D	-um	2.F/	-e-	2d/	e-
.	.	.	.	.	.	2f/	.
.	.	.	.	4G/	.	.	.
2C/	ad-	2r	.	2A/	.	2e/	.
2BB-/	.	1d	ad-	1B-	.	2d/	.
1C	-ver-	.	.	.	.	1e	.
.	.	2c\	.	2A/	.	.	.
=19	=19	=19	=19	=19	=19	=19	=19
2.BB-/	.	2.d\	-ver-	1B-	-um	2.d/	.
4C/	.	4c\	.	.	.	4e/	.
2D\	.	2B-\	.	2r	.	2f/	.
2E-i\	-sus	2G/	-sus	2c\	In	1g	.
1D	e-	1A	e-	1d	ma-	.	.
.	.	.	.	.	.	2f#i/	.
=20	=20	=20	=20	=20	=20	=20	=20
2GG/	-um	1G	-um	1B-	-nus	1g	-um
2G\	In	.	.	.	.	.	.
1A	ma-	1r	.	1c	tu-	1r	.
2F\	-nus	1r	.	2d\	-as	1r	.
2G\	tu-	.	.	[2B-\	do-	.	.
=21	=21	=21	=21	=21	=21	=21	=21
2G\	-as	0.r	.	2B-\]	.	0.r	.
2A\	do-	.	.	1c	-mi-	.	.
2A\	-mi-	.	.	.	.	.	.
1F	-ne	.	.	1d	-ne	.	.
[2G\	com-	.	.	[2B-\	com-	.	.
=22	=22	=22	=22	=22	=22	=22	=22
2G\]	.	0.r	.	2B-\]	.	0.r	.
1A	-men-	.	.	1c	-men-	.	.
1F	-do	.	.	2.d\	-do	.	.
.	.	.	.	4c\	.	.	.
[2G\	spi-	.	.	[2e-\	spi-	.	.
=23	=23	=23	=23	=23	=23	=23	=23
4G\]	.	1r	.	4e-\]	.	1r	.
4F\	-ri-	.	.	4d\	-ri-	.	.
4E-i\	-tum	.	.	1d	-tum	.	.
4D\	.	.	.	.	.	.	.
1E-i	me-	2r	.	.	.	1r	.
.	.	2G/	re-	2c\	me-	.	.
[1D	-um	2B-\	-de-	[1d	-um	2r	.
.	.	2B-\	-mi-	.	.	2d/	re-
=24	=24	=24	=24	=24	=24	=24	=24
1D]	.	2A/	-sti	1d]	.	2f/	-de-
.	.	2A/	me	.	.	2f/	-mi-
1r	.	2.c\	do-	2r	.	2e/	-sti
.	.	.	.	2c\	re-	2e/	me
.	.	4c\	-mi-	.	.	.	.
2r	.	2G/	-ne	2e-i\	-de-	2.g/	do-
2C/	re-	2c\	de-	2e-i\	-mi-	.	.
.	.	.	.	.	.	4g/	-mi-
=25	=25	=25	=25	=25	=25	=25	=25
2D\	-de-	2B-\	-us	2d\	-sti	2d/	-ne
2E-i\	-mi-	2G/	ve-	2.B-\	me	2g/	de-
1D	-sti	1B-	-ri-	.	.	2f/	-us
.	.	.	.	4c\	.	.	.
.	.	.	.	4d\	.	2d/	ve-
.	.	.	.	4B-\	.	.	.
2r	.	1A	-ta-	1c	do-	1f	-ri-
[2AA/	me	.	.	.	.	.	.
=26	=26	=26	=26	=26	=26	=26	=26
4AA/]	.	1G	-tis	2B-\	-mi-	1e	-ta-
4BB-/	.	.	.	.	.	.	.
2C/	.	.	.	2G/	-ne	.	.
2D\	do-	2r	.	1B-	de-	2d/	.
2BB-/	-mi-	2d\	ve-	.	.	1g	.
2C/	-ne	2c\	.	1A	-us	.	.
2D\	de-	2A/	-ri-	.	.	2f#i/	.
=27	=27	=27	=27	=27	=27	=27	=27
2GG/	-us	1B-	-ta-	1G	ve-	2g/	-tis
2G\	ve-	.	.	.	.	2d/	Lo-
2F\	.	1A	-tis	2.A/	.	2.f/	-cu-
2D\	-ri-	.	.	.	.	.	.
.	.	.	.	4B-\	.	4g/	-tus
1F	-ta-	2r	.	2c\	.	2a/	sum
.	.	2A/	Lo-	[2d\	.	2f/	in
=28	=28	=28	=28	=28	=28	=28	=28
1E-	.	1G	-cu-	2d\]	.	1g	lin-
.	.	.	.	2c\	-ri-	.	.
1D	-tis	1B-	-tus	1d	-ta-	2f/	.
.	.	.	.	.	.	2d/	-gua
2r	.	2A/	sum	2c\	.	1f	me-
2D\	Lo-	2F/	in	2A/	.	.	.
=29	=29	=29	=29	=29	=29	=29	=29
1C	-cu-	2G/	lin-	2.c\	-tis	1e	-a
.	.	2A/	-gua	.	.	.	.
.	.	.	.	8B-/L	.	.	.
.	.	.	.	8A/J	.	.	.
1E-	-tus	2B-\	me-	1G	.	2r	.
.	.	2G/	.	.	.	2e/	no-
2D\	sum	2A/	.	2r	.	2f/	-tum
2BB-/	in	2B-\	.	2d\	Lo-	2d/	fac
=30	=30	=30	=30	=30	=30	=30	=30
2C/	lin-	4A/	.	2c\	-cu-	2e/	mi-
.	.	4G/	.	.	.	.	.
2D\	-gua	4F/	.	2A/	-tus	2f/	-hi
.	.	4E/	.	.	.	.	.
2BB-/	me-	2D/	.	2B-\	sum	1g	do-
2C/	.	1G	.	2G/	in	.	.
1AA	.	.	.	2A/	lin-	2e/	-mi-
.	.	2F/	.	2c\	-gua	2f/	-ne
=31	=31	=31	=31	=31	=31	=31	=31
2GG/	-a	1G	-a	1B-	me-	2d/	fi-
1G	no-	.	.	.	.	1e	-nem
.	.	1r	.	2G/	.	.	.
2F\	-tum	.	.	2A/	.	1a	me-
1G	fac	1G	no-	1B-	.	.	.
.	.	.	.	.	.	2g/	.
=32	=32	=32	=32	=32	=32	=32	=32
2D\	mi-	2F/	-tum	1A	-a	1a	-um
2F\	-hi	2F/	fac	.	.	.	.
4BB-/	do-	1B-	mi-	1r	.	1r	.
4C/	.	.	.	.	.	.	.
4D\	.	.	.	.	.	.	.
4E\	.	.	.	.	.	.	.
2F\	.	2A/	-hi	1r	.	1r	.
2D\	.	2F/	do-	.	.	.	.
=33	=33	=33	=33	=33	=33	=33	=33
2E\	.	2G/	.	2r	.	2r	.
2.F\	.	2A/	-mi-	1.A	no-	2.a/	Et
.	.	1D	-ne	.	.	.	.
4E\	.	.	.	.	.	4g/	.
4D\	-mi-	.	.	.	.	4f/	.
4C/	.	.	.	.	.	4e/	.
2BB-/	-ne	2r	.	2B-\	-tum	2d/	nu-
2B-\	fi-	2d\	fi-	2G/	fac	4f/	.
.	.	.	.	.	.	4g/	.
=34	=34	=34	=34	=34	=34	=34	=34
2.A\	.	2c\	-nem	2.A/	mi-	4a/	.
.	.	.	.	.	.	4b-\	.
.	.	2.f\	me-	.	.	1cc	.
4G\	.	.	.	4B-\	.	.	.
2F\	.	.	.	4c\	-hi	.	.
.	.	4e\	.	4A/	.	.	.
2G\	-nem	1d	.	2d\	do-	4b-\	-me-
.	.	.	.	.	.	4a/	.
1E	me-	.	.	1G	-mi-	1g	.
.	.	2c#i\	.	.	.	.	.
=35	=35	=35	=35	=35	=35	=35	=35
1D	-um	1d	-um	4A/	-ne	2f/	-rum
.	.	.	.	4F/	.	.	.
.	.	.	.	2f\	fi-	2a/	Et
2r	.	2r	.	2f\	-nem	2a/	nu-
2D\	Et	2d\	Et	2f\	me-	2a/	-me-
2D\	nu-	2d\	nu-	1d	-um	2f/	-rum
2D\	-me-	2d\	-me-	.	.	2f/	di-
=36	=36	=36	=36	=36	=36	=36	=36
1G	-rum	2B-\	-rum	2r	.	1b-	-e-
.	.	2B-\	di-	2G/	Et	.	.
1C	di-	1e-i	-e-	2c\	nu-	2g/	-rum
.	.	.	.	2c\	-me-	2g/	me-
1F	-e-	2c\	-rum	2A/	-rum	1a	-o-
.	.	2c\	me-	2A/	di-	.	.
=37	=37	=37	=37	=37	=37	=37	=37
2D\	-rum	1d	-o-	1B-	-e-	2d/	-rum
2D\	me-	.	.	.	.	2f/	quis
1E	-o-	2G/	-rum	2G/	-rum	4g/	sit
.	.	.	.	.	.	4f/	.
.	.	2c\	quis	2G/	me-	4e/	.
.	.	.	.	.	.	4d/	.
2AA/	-rum	4c\	sit	1A	-o-	1c	.
.	.	4B-\	.	.	.	.	.
2A\	quis	4A/	.	.	.	.	.
.	.	4G/	.	.	.	.	.
=38	=38	=38	=38	=38	=38	=38	=38
4A\	sit	2F/	.	2D/	-rum	2r	.
4G\	.	.	.	.	.	.	.
4F\	.	2f\	ut	2d\	quis	4d/	ut
4E\	.	.	.	.	.	4e/	.
1D	.	4f\	sci-	4d\	sit	4f/	.
.	.	4e\	.	4c\	.	4g/	.
.	.	4d\	.	4B-\	.	2a/	.
.	.	4c\	.	4A/	.	.	.
2r	.	2B-\	.	1G	.	2b-\	sci-
2G\	ut	2e-\	.	.	.	2g/	.
=39	=39	=39	=39	=39	=39	=39	=39
1D	sci-	2.d\	.	2r	.	4a/	.
.	.	.	.	.	.	4g/	.
.	.	.	.	1d	ut	4f/	.
.	.	4c\	.	.	.	4e/	.
2G\	.	2B-\	.	.	.	2d/	.
2C/	.	2c\	.	2e-i\	sci-	1g	.
1D	.	1A	.	1d	-am	.	.
.	.	.	.	.	.	2f#i/	.
=40	=40	=40	=40	=40	=40	=40	=40
1E-	-am	1G	-am	2r	.	1g	-am
.	.	.	.	2G/	quid	.	.
1E-i	ut	2r	.	2B-\	de-	2r	.
.	.	2G/	quid	2c\	-sit	1g	quid
2E-i\	sci-	2B-\	de-	1e-i	mi-	.	.
[2C/	.	2c\	-sit	.	.	[2g/	de-
=41	=41	=41	=41	=41	=41	=41	=41
4C/]	.	1e-i	mi-	1c	.	2g/]	.
4BB-/	.	.	.	.	.	.	.
2C/	.	.	.	.	.	2g/	-sit
1GG	-am	1d	-hi	2d\	-hi	1b-	mi-
.	.	.	.	2D/	quid	.	.
1r	.	2r	.	2.F/	de-	1a	-hi
.	.	2D/	quid	.	.	.	.
.	.	.	.	4G/	.	.	.
=42	=42	=42	=42	=42	=42	=42	=42
2r	.	2F/	de-	2A/	.	2r	.
2.G\	quid	2G/	-sit	2B-\	-sit	2d/	quid
.	.	1B-	mi-	1G	mi-	2d/	de-
4F\	.	.	.	.	.	.	.
2G\	.	.	.	.	.	2d/	-sit
1D	de-	1A	-hi	2.A/	-hi	1f	mi-
.	.	.	.	4B-\	.	.	.
=43	=43	=43	=43	=43	=43	=43	=43
1A	-sit	1r	.	1c	.	1e	-hi
2r	.	2r	.	1r	.	1r	.
1G	quid	2G/	quid	.	.	.	.
.	.	2B-\	de-	2r	.	2r	.
[2C/	de-	2c\	-sit	2G/	quid	[2g/	quid
=44	=44	=44	=44	=44	=44	=44	=44
2C/]	.	1.e-i	mi-	2.c\	de-	2g/]	.
1C	-sit	.	.	.	.	1g	de-
.	.	.	.	4d\	.	.	.
.	.	.	.	1e-	-sit	.	.
2C/	mi-	4d\	.	.	.	2g/	-sit
.	.	4c\	.	.	.	.	.
1E-i	.	2B-\	.	2B-\	mi-	1g	mi-
.	.	2c\	.	2G/	-hi	.	.
=45	=45	=45	=45	=45	=45	=45	=45
1D	-hi	[0.dl	-hi	1r	.	2a/	-hi
.	.	.	.	.	.	2b-\	quid
2r	.	.	.	1r	.	2a/	de-
2G\	mi-	.	.	.	.	1b-	-sit
2.B-\	.	.	.	2r	.	.	.
.	.	.	.	[2G/	mi-	[2b-\	mi-
4A\	.	.	.	.	.	.	.
=46	=46	=46	=46	=46	=46	=46	=46
2G\	.	0.d_	.	4G/]	.	2b-\]	.
.	.	.	.	4A/	.	.	.
4F\	.	.	.	4B-\	.	4a/	.
4E\	.	.	.	4c\	.	4g/	.
[0Dl	-hi	.	.	4d\	.	[0fl	-hi
.	.	.	.	4e\	.	.	.
.	.	.	.	4f\	.	.	.
.	.	.	.	2d\	.	.	.
.	.	.	.	8c\L	.	.	.
.	.	.	.	8B-\J	.	.	.
.	.	.	.	4A/	.	.	.
.	.	.	.	4B-\	.	.	.
=47	=47	=47	=47	=47	=47	=47	=47
0.D]	.	0.d]	.	0.Al	-hi	0.f]	.
!!LO:LB:i:g=z
=48||	=48||	=48||	=48||	=48||	=48||	=48||	=48||
*>B	*>B	*>B	*>B	*>B	*>B	*>B	*>B
*clefF4	*	*clefGv2	*	*clefGv2	*	*clefG2	*
*k[b-]	*	*k[b-]	*	*k[b-]	*	*k[b-]	*
*M2/1	*	*M2/1	*	*M2/1	*	*M2/1	*
*met(C|)	*	*met(C|)	*	*met(C|)	*	*met(C|)	*
!!section: Fac mecum
!!!OMD: Fac mecum
1D	Fac	1r	.	0r	.	0r	.
1D	me-	1A	Fac	.	.	.	.
=49	=49	=49	=49	=49	=49	=49	=49
2D\	-cum	1A	me-	0r	.	0r	.
1F	si-	.	.	.	.	.	.
.	.	2A/	-cum	.	.	.	.
[2C/	-gnum	[2c\	si-	.	.	.	.
=50	=50	=50	=50	=50	=50	=50	=50
2C/]	.	2c\]	.	0r	.	0r	.
2C/	in	1G	-gnum	.	.	.	.
1E-	bo-	.	.	.	.	.	.
.	.	2G/	in	.	.	.	.
=51	=51	=51	=51	=51	=51	=51	=51
0D	-no	1B-	bo-	0r	.	0r	.
.	.	[1A	-no	.	.	.	.
=52	=52	=52	=52	=52	=52	=52	=52
2r	.	1A]	.	0r	.	0r	.
2C/	ut	.	.	.	.	.	.
2.E-i\	vi-	2r	.	.	.	.	.
.	.	2G/	ut	.	.	.	.
4E-i\	-de-	.	.	.	.	.	.
=53	=53	=53	=53	=53	=53	=53	=53
2D\	-ant	2.B-\	vi-	0r	.	0r	.
2BB-/	qui	.	.	.	.	.	.
.	.	4B-\	-de-	.	.	.	.
2C/	me	2A/	-ant	.	.	.	.
2D\	o-	2F/	qui	.	.	.	.
=54	=54	=54	=54	=54	=54	=54	=54
2BB-/	-de-	2G/	me	0r	.	0r	.
2C/	.	2A/	o-	.	.	.	.
2D\	-runt	2F/	-de-	.	.	.	.
[2GG/	et	[2D/	-runt	.	.	.	.
=55	=55	=55	=55	=55	=55	=55	=55
4GG/]	.	2D/]	.	0r	.	0r	.
4AA/	.	.	.	.	.	.	.
2BB-/	.	2d\	et	.	.	.	.
2C/	con-	2c\	con-	.	.	.	.
2D\	-fun-	[2f\	-fun-	.	.	.	.
=56	=56	=56	=56	=56	=56	=56	=56
2E\	-dan-	4f\]	.	0r	.	0r	.
.	.	4e\	.	.	.	.	.
2F\	.	1d	-dan-	.	.	.	.
2G\	.	.	.	.	.	.	.
2A\	.	2c#i\	.	.	.	.	.
=57	=57	=57	=57	=57	=57	=57	=57
0D	-tur	2d\	-tur	1r	.	1a	quo-
.	.	2.A/	quo-	.	.	.	.
.	.	.	.	2.A/	quo-	2a/	-ni-
.	.	4A/	-ni-	.	.	.	.
.	.	2A/	-am	.	.	[2a/	-am
.	.	.	.	4A/	-ni-	.	.
=58	=58	=58	=58	=58	=58	=58	=58
0r	.	2A/	tu	2A/	-am	2a/]	.
.	.	2.c\	do-	2A/	tu	1a	tu
.	.	.	.	2.c\	do-	.	.
.	.	4c\	-mi-	.	.	.	.
.	.	2F/	-ne	.	.	[2cc\	do-
.	.	.	.	4c\	-mi-	.	.
=59	=59	=59	=59	=59	=59	=59	=59
1r	.	2.F/	ad-	2F/	-ne	4cc\]	.
.	.	.	.	.	.	4cc\	-mi-
.	.	.	.	2.F/	ad-	1f	-ne
.	.	4G/	.	.	.	.	.
2r	.	2.A/	.	.	.	.	.
.	.	.	.	4G/	.	.	.
[2D\	quo-	.	.	[2A/	.	[2f/	ad-
.	.	4G/	.	.	.	.	.
=60	=60	=60	=60	=60	=60	=60	=60
4D\]	.	4F/	.	4A/]	.	4f/]	.
4E\	.	4E/	.	4G/	.	4g/	.
2.F\	-ni-	2D/	-ju-	4F/	.	2.a/	.
.	.	.	.	4E/	.	.	.
.	.	2.d\	-vi-	2D/	-ju-	.	.
4E\	.	.	.	.	.	4g/	.
4D\	-am	.	.	[2d\	-vi-	4f/	.
4C/	.	4e\	.	.	.	4e/	.
=61	=61	=61	=61	=61	=61	=61	=61
2BB-/	tu	2.f\	.	4d\]	.	2d/	-ju-
.	.	.	.	4e\	.	.	.
1B-	do-	.	.	2.f\	.	2.d/	-vi-
.	.	4e\	.	.	.	.	.
.	.	4d\	.	.	.	.	.
.	.	4c\	.	4e\	.	4e/	.
2B-\	-mi-	[2B-\	.	4d\	.	2f/	.
.	.	.	.	4c\	.	.	.
=62	=62	=62	=62	=62	=62	=62	=62
2G\	-ne	2B-\]	.	2d\	.	2g/	.
2A\	ad-	1A	.	2A/	.	2e/	.
2F\	.	.	.	2c\	.	2f/	.
2G\	-ju-	2G/	-sti	2B-\	.	2d/	.
=63	=63	=63	=63	=63	=63	=63	=63
2D\	-vi-	1A	me	2A/	.	2a/	.
2F\	.	.	.	1d	.	2f/	.
1E	-sti	1r	.	.	.	1g	-sti
.	.	.	.	2c#i\	-sti	.	.
=64	=64	=64	=64	=64	=64	=64	=64
0D	me	0r	.	1d	me	1f	me
.	.	.	.	1r	.	2r	.
.	.	.	.	.	.	[2f/	Dis-
=65	=65	=65	=65	=65	=65	=65	=65
0r	.	0r	.	1B-	Dis-	2f/]	.
.	.	.	.	.	.	2g/	-ru-
.	.	.	.	2c\	-ru-	2a/	-pi-
.	.	.	.	2d\	-pi-	2f/	-sti
=66	=66	=66	=66	=66	=66	=66	=66
0r	.	0r	.	2B-\	-sti	2g/	do-
.	.	.	.	2c\	do-	2a/	-mi-
.	.	.	.	2d\	-mi-	2d/	-ne
.	.	.	.	2G/	-ne	[2b-\	vin-
=67	=67	=67	=67	=67	=67	=67	=67
0r	.	0r	.	2.e-i\	vin-	4b-\]	.
.	.	.	.	.	.	4a/	.
.	.	.	.	.	.	4g/	.
.	.	.	.	4d\	.	4f/	.
.	.	.	.	2.c\	.	1e	.
.	.	.	.	8B-/L	.	.	.
.	.	.	.	8A/J	.	.	.
=68	=68	=68	=68	=68	=68	=68	=68
1BB-	Dis-	0r	.	2G/	-cu-	2d/	-cu-
.	.	.	.	2B-\	-la	1g	-la
2C/	-ru-	.	.	1A	me-	.	.
2D\	-pi-	.	.	.	.	2f#i/	me-
=69	=69	=69	=69	=69	=69	=69	=69
2BB-/	-sti	0r	.	1G	-a	1g	-a
2C/	do-	.	.	.	.	.	.
2D\	-mi-	.	.	2r	.	2r	.
2GG/	-ne	.	.	[2G/	ti-	[2g/	ti-
=70	=70	=70	=70	=70	=70	=70	=70
2.E-\	vin-	0r	.	4G/]	.	2g/]	.
.	.	.	.	4A/	.	.	.
.	.	.	.	2B-\	-bi	2g/	-bi
4D\	.	.	.	.	.	.	.
4C/	.	.	.	4c\	sa-	4a/	sa-
4BB-/	.	.	.	4d\	.	4b-\	.
2AA/	-cu-	.	.	4e\	.	4cc\	.
.	.	.	.	4c\	.	4a/	.
=71	=71	=71	=71	=71	=71	=71	=71
2.GG/	-la	1.D	ti-	2.d\	.	2.b-\	.
4AA/	.	.	.	4c\	.	4a/	.
2BB-/	me-	.	.	4B-\	.	4g/	.
.	.	.	.	4A/	.	4f/	.
2C/	-a	2E/	-bi	2G/	-cri-	2e/	.
=72	=72	=72	=72	=72	=72	=72	=72
2D\	ti-	2F/	sa-	2B-\	-fi-	2d/	-cri-
2E\	-bi	2G/	-cri-	1c	-ca-	2g/	-fi-
2F\	sa-	2A/	-fi-	.	.	2f/	-ca-
2BB-/	-cri-	2B-\	.	2B-\	.	2d/	.
=73	=73	=73	=73	=73	=73	=73	=73
1E-i	-fi-	1c	-ca-	1G	.	1g	-bo
2.D\	-ca-	1F	-bo	1A	.	2r	.
.	.	.	.	.	.	2f/	ho-
4C/	.	.	.	.	.	.	.
=74	=74	=74	=74	=74	=74	=74	=74
2BB-/	.	1r	.	1G	-bo	2g/	-sti-
2C/	.	.	.	.	.	2b-\	-am
1AA	.	2r	.	2r	.	4a/	lau-
.	.	.	.	.	.	4g/	.
.	.	2F/	ho-	2A/	ho-	4f/	.
.	.	.	.	.	.	4e/	.
=75	=75	=75	=75	=75	=75	=75	=75
1GG	-bo	2G/	-sti-	2B-\	-sti-	2d/	.
.	.	2B-\	-am	2d\	-am	2g/	.
1r	.	4A/	lau-	4c\	lau-	2.f/	.
.	.	4G/	.	4B-\	.	.	.
.	.	4F/	.	4A/	.	.	.
.	.	4E/	.	4G/	.	4g/	.
=76	=76	=76	=76	=76	=76	=76	=76
2r	.	2D/	.	2F/	.	2a/	.
2GG/	ho-	1G	.	2G/	.	2b-\	.
2.C/	-sti-	.	.	1A	-dis	1cc	.
.	.	2F#i/	.	.	.	.	.
4D\	.	.	.	.	.	.	.
=77	=77	=77	=77	=77	=77	=77	=77
2.E-\	-am	1G	-dis	2.G/	et	1b-	-dis
8D/L	.	.	.	4A/	.	.	.
8C/J	.	.	.	.	.	.	.
2BB-/	.	2D/	et	2B-\	no-	2r	.
2E-i\	lau-	2G/	no-	2c\	-men	2g/	et
=78	=78	=78	=78	=78	=78	=78	=78
2D\	-dis	2A/	-men	2d\	do-	2f/	no-
2BB-/	et	2.B-\	do-	2d\	-mi-	2d/	-men
2C/	no-	.	.	2.e-i\	-ni	2g/	do-
.	.	4A/	-mi-	.	.	.	.
2D\	-men	2F/	-ni	.	.	2f/	-mi-
.	.	.	.	4d\	.	.	.
=79	=79	=79	=79	=79	=79	=79	=79
1GG	do-	2G/	in-	2B-\	.	2b-\	-ni
.	.	2B-\	-vo-	2d\	in-	2g/	in-
2C/	-mi-	2A/	-ca-	2c\	-vo-	2a/	.
2D\	-ni	2D/	.	2B-\	.	2f/	-vo-
=80	=80	=80	=80	=80	=80	=80	=80
2.E-i\	in-	0B-	.	4G/	-ca-	2.g/	-ca-
.	.	.	.	4A/	.	.	.
.	.	.	.	4B-\	.	.	.
4D\	.	.	.	4c\	.	4f/	.
2BB-/	.	.	.	2d\	.	2d/	.
2D\	-vo-	.	.	2B-\	.	2f/	.
=81	=81	=81	=81	=81	=81	=81	=81
2.C/	-ca-	0G	.	1c	.	1e	.
4BB-/	.	.	.	.	.	.	.
2GG/	.	.	.	2B-\	.	1d	-bo
2BB-/	.	.	.	[2G/	.	.	.
=82	=82	=82	=82	=82	=82	=82	=82
1AA	.	1A	.	2G/]	.	1r	.
.	.	.	.	2F#i/	.	.	.
1GG	-bo	1D	-bo	1G	-bo	[1b-	in-
=83	=83	=83	=83	=83	=83	=83	=83
1r	.	0G	in-	0e-i	in-	1b-]	.
[1C	in-	.	.	.	.	1g	-vo-
=84	=84	=84	=84	=84	=84	=84	=84
1C]	.	1E	-vo-	1c	-vo-	1a	-ca-
1BB-	-vo-	2F/	-ca-	1d	-ca-	1d	.
.	.	2D/	.	.	.	.	.
=85	=85	=85	=85	=85	=85	=85	=85
1C	-ca-	1E	.	1G	.	1g	.
1GG	.	1D	.	[1d	.	[1b-	.
=86	=86	=86	=86	=86	=86	=86	=86
0E-i	.	0G	.	1d]	.	2b-\]	.
.	.	.	.	.	.	2a/	.
.	.	.	.	1c	.	1g	.
=87	=87	=87	=87	=87	=87	=87	=87
1C	.	1C	.	1e-i	.	1g	.
1D	.	1F	.	1d	.	1f#i	.
=88	=88	=88	=88	=88	=88	=88	=88
*M3/1	*	*M3/1	*	*M3/1	*	*M3/1	*
*met(O/3)	*	*met(O/3)	*	*met(O/3)	*	*met(O/3)	*
0GG	-bo	0.D	-bo	0B-	-bo	0.g	-bo
1r	.	.	.	1r	.	.	.
=89	=89	=89	=89	=89	=89	=89	=89
1.C	Pe-	1r	.	1.e	Pe-	1r	.
.	.	1r	.	.	.	1r	.
2C/	-ri-	.	.	2e\	-ri-	.	.
1C	-it	[1G	Pe-	1e	-it	[1g	Pe-
=90	=90	=90	=90	=90	=90	=90	=90
1C	fu-	2G/]	.	1e	fu-	2g/]	.
.	.	2G/	-ri-	.	.	2g/	-ri-
1BB-	-ga	1G	-it	1d	-ga	1g	-it
[1E-i	a	1G	fu-	[1G	a	1b-	fu-
=91	=91	=91	=91	=91	=91	=91	=91
2E-\]	.	1F	-ga	2G/]	.	1a	-ga
2D\	.	.	.	2A/	.	.	.
1D	me	1.B-	a	1B-	me	1.d	a
1r	.	.	.	1d	et	.	.
.	.	2A/	.	.	.	2e/	.
=92	=92	=92	=92	=92	=92	=92	=92
1D	et	1A	me	1d	non	1f	me
1D	non	1r	.	1d	est	1a	et
1D	est	1A	et	1d	qui	1a	non
=93	=93	=93	=93	=93	=93	=93	=93
1D	qui	1A	non	1d	re-	1a	est
1D	re-	1A	est	0f	-qui-	1a	qui
[1F	-qui-	1A	qui	.	.	1a	re-
=94	=94	=94	=94	=94	=94	=94	=94
1F]	.	1A	re-	1c	-rat	0cc	-qui-
0C	-rat	0c	-qui-	1.e	a-	.	.
.	.	.	.	.	.	[1g	-rat
.	.	.	.	2d\	-ni-	.	.
=95	=95	=95	=95	=95	=95	=95	=95
0E-	a-	0G	-rat	1c	-mam	1g]	.
.	.	.	.	1B-	me-	2b-\	a-
.	.	.	.	.	.	2a/	.
1D	.	[1B-	a-	[1d	.	2g/	.
.	.	.	.	.	.	2f/	.
=96	=96	=96	=96	=96	=96	=96	=96
1BB-	.	1B-]	.	1d]	.	2e/	.
.	.	.	.	.	.	2d/	.
1C	-ni-	1A	-ni-	1c	.	1e	-ni-
1D	-mam	1F	-mam	1A	.	1f	-mam
=97	=97	=97	=97	=97	=97	=97	=97
1GG	me-	1G	me-	1B-	.	2d/	me-
.	.	.	.	.	.	2e/	.
1D	.	2A/	.	0A	-am	2f/	.
.	.	2D/	.	.	.	2g/	.
[1F	.	1A	.	.	.	[1a	.
=98	=98	=98	=98	=98	=98	=98	=98
2F\]	.	1.c	.	0.r	.	2a/]	.
2E-\	.	.	.	.	.	2g/	.
2C/	.	.	.	.	.	2e/	.
2D\	.	2B-\	.	.	.	2f/	.
[1E-i	.	2G/	.	.	.	[1g	.
.	.	2A/	.	.	.	.	.
=99	=99	=99	=99	=99	=99	=99	=99
2E-iy\]	.	1.B-	.	0.r	.	2g/]	.
2D\	.	.	.	.	.	2f/	.
2BB-/	.	.	.	.	.	2d/	.
2C/	.	2A/	.	.	.	2e/	.
2D\	.	2F/	.	.	.	[1f	.
2Eni\	.	2G/	.	.	.	.	.
=100	=100	=100	=100	=100	=100	=100	=100
1F	.	2A/	.	1.A	a-	2f/]	.
.	.	2B-\	.	.	.	2g/	.
2FF/	.	1c	.	.	.	1.a	.
2GG/	.	.	.	2B-\	.	.	.
2AA/	.	2C/	.	2c\	.	.	.
2BB-/	.	2D/	.	2B-\	.	4g/	.
.	.	.	.	.	.	4f/	.
=101	=101	=101	=101	=101	=101	=101	=101
2C/	.	2E/	.	0G	.	2e/	.
2D\	.	2F/	.	.	.	2d/	.
1.E-i	.	2G/	.	.	.	1.g	.
.	.	2A/	.	.	.	.	.
.	.	1B-	.	1G	-ni-	.	.
2D\	.	.	.	.	.	2f/	.
=102	=102	=102	=102	=102	=102	=102	=102
0D	.	1A	.	1A	-mam	0f	.
.	.	0G	.	1B-	me-	.	.
1C	.	.	.	1c	.	1e	.
=103	=103	=103	=103	=103	=103	=103	=103
*M2/1	*	*M2/1	*	*M2/1	*	*M2/1	*
*met(C|)	*	*met(C|)	*	*met(C|)	*	*met(C|)	*
1D	-am	0F	-am	0A	.	0f	-am
1r	.	.	.	.	.	.	.
=104	=104	=104	=104	=104	=104	=104	=104
1GG	Cla-	1r	.	1G	-am	0r	.
1D	-ma-	1D	Cla-	1r	.	.	.
=105	=105	=105	=105	=105	=105	=105	=105
2D\	-vi	1A	-ma-	0r	.	0r	.
1D	ad	.	.	.	.	.	.
.	.	2A/	-vi	.	.	.	.
2D\	te	[2A/	ad	.	.	.	.
=106	=106	=106	=106	=106	=106	=106	=106
2C/	do-	2A/]	.	0r	.	0r	.
2D\	-mi-	2A/	te	.	.	.	.
2GG/	-ne	2G/	do-	.	.	.	.
2D\	di-	2A/	-mi-	.	.	.	.
=107	=107	=107	=107	=107	=107	=107	=107
2D\	-xi	2D/	-ne	0r	.	0r	.
2D\	tu	2A/	di-	.	.	.	.
[1F	es	2A/	-xi	.	.	.	.
.	.	2A/	tu	.	.	.	.
=108	=108	=108	=108	=108	=108	=108	=108
2F\]	.	1.c	es	1r	.	0r	.
2C/	spes	.	.	.	.	.	.
1E-i	me-	.	.	1G	Cla-	.	.
.	.	2G/	spes	.	.	.	.
=109	=109	=109	=109	=109	=109	=109	=109
0D	-a	1B-	me-	1d	-ma-	1d	Cla-
.	.	[1A	-a	2d\	-vi	1a	-ma-
.	.	.	.	[2d\	ad	.	.
=110	=110	=110	=110	=110	=110	=110	=110
0r	.	1A]	.	2d\]	.	2a/	-vi
.	.	.	.	2d\	te	1a	ad
.	.	1r	.	2c\	do-	.	.
.	.	.	.	2d\	-mi-	2a/	te
=111	=111	=111	=111	=111	=111	=111	=111
0r	.	0r	.	2G/	-ne	2g/	do-
.	.	.	.	2d\	di-	2a/	-mi-
.	.	.	.	2d\	-xi	2d/	-ne
.	.	.	.	2d\	tu	2a/	di-
=112	=112	=112	=112	=112	=112	=112	=112
0r	.	1r	.	1.f	es	2a/	-xi
.	.	.	.	.	.	2a/	tu
.	.	1r	.	.	.	[1cc	es
.	.	.	.	2c\	spes	.	.
=113	=113	=113	=113	=113	=113	=113	=113
0r	.	0r	.	1e-	me-	2cc\]	.
.	.	.	.	.	.	2g/	spes
.	.	.	.	[1d	-a	1b-	me-
=114	=114	=114	=114	=114	=114	=114	=114
0r	.	1r	.	1d]	.	1a	-a
.	.	1r	.	1r	.	1r	.
=115	=115	=115	=115	=115	=115	=115	=115
1.D	por-	1.A	por-	1.f	por-	1.a	por-
2D\	-ti-	2A/	-ti-	2f\	-ti-	2a/	-ti-
=116	=116	=116	=116	=116	=116	=116	=116
1D	-o	1F	-o	1f	-o	1a	-o
[1GG	me-	[1B-	me-	[1d	me-	[1b-	me-
=117	=117	=117	=117	=117	=117	=117	=117
1GG]	.	1B-]	.	1d]	.	2b-\]	.
.	.	.	.	.	.	4a/	.
.	.	.	.	.	.	4g/	.
[1D	-a	[1A	-a	[1d	-a	[1f	-a
=118	=118	=118	=118	=118	=118	=118	=118
1D]	.	1A]	.	1d]	.	1f]	.
1r	.	2r	.	1r	.	2r	.
.	.	[2A/	in	.	.	[2cc\	in
=119	=119	=119	=119	=119	=119	=119	=119
2r	.	2A/]	.	2r	.	2cc\]	.
1D	in	2A/	ter-	1f	in	2cc\	ter-
.	.	2F/	-ra	.	.	2a/	-ra
2D\	ter-	2F/	vi-	2f\	ter-	2a/	vi-
=120	=120	=120	=120	=120	=120	=120	=120
2BB-/	-ra	2.B-\	-ven-	2d\	-ra	2.dd\	-ven-
2BB-/	vi-	.	.	2d\	vi-	.	.
.	.	4B-\	-ti-	.	.	4dd\	-ti-
2.E-i\	-ven-	2G/	-um	2.g\	-ven-	2b-\	-um
.	.	2G/	vi-	.	.	2g/	vi-
4E-i\	-ti-	.	.	4g\	-ti-	.	.
=121	=121	=121	=121	=121	=121	=121	=121
2C/	-um	2.A/	-ven-	2e\	-um	2.cc\	-ven-
2C/	vi-	.	.	2c\	vi-	.	.
.	.	4A/	-ti-	.	.	4cc\	-ti-
2.D\	-ven-	2D/	-um	2.f\	-ven-	2a/	-um
.	.	2d\	vi-	.	.	2a/	vi-
4D\	-ti-	.	.	4f\	-ti-	.	.
=122	=122	=122	=122	=122	=122	=122	=122
1GG	-um	2d\	-ven-	2d\	-um	4dd\	-ven-
.	.	.	.	.	.	4cc\	.
.	.	2d\	-ti-	2g\	vi-	4b-\	-ti-
.	.	.	.	.	.	4a/	.
2r	.	4d\	-um	2g\	-ven-	1g	-um
.	.	4c\	.	.	.	.	.
2G\	vi-	4B-\	.	2g\	-ti-	.	.
.	.	4A/	.	.	.	.	.
=123	=123	=123	=123	=123	=123	=123	=123
2.G\	-ven-	1G	.	4g\	-um	2r	.
.	.	.	.	4f\	.	.	.
.	.	.	.	4e\	.	1g	in
4G\	-ti-	.	.	4d\	.	.	.
2E\	-um	1r	.	1c	.	.	.
2A\	vi-	.	.	.	.	2cc\	ter-
=124	=124	=124	=124	=124	=124	=124	=124
2A\	-ven-	0r	.	2.A/	in	2cc\	-ra
2A\	-ti-	.	.	.	.	2.cc\	vi-
.	.	.	.	4B-\	.	.	.
4A\	-um	.	.	2c\	.	.	.
4G\	.	.	.	.	.	4b-\	.
4F\	.	.	.	2d\	ter-	4a/	.
4E\	.	.	.	.	.	4g/	.
=125	=125	=125	=125	=125	=125	=125	=125
2D\	.	1r	.	2A/	.	2f/	.
2F\	.	.	.	1d	-ra	2a/	.
1E	.	1r	.	.	.	1g	.
.	.	.	.	2c\	vi-	.	.
=126	=126	=126	=126	=126	=126	=126	=126
[0D	.	1d	vi-	2d\	-ven-	[0f	-ven-
.	.	.	.	2.f\	.	.	.
.	.	[1f	-ven-	.	.	.	.
.	.	.	.	4e\	.	.	.
.	.	.	.	[2d\	.	.	.
=127	=127	=127	=127	=127	=127	=127	=127
0D_	.	2f\]	.	2d\]	.	0f_	.
.	.	2e\	.	2c\	.	.	.
.	.	2d\	.	2B-\	.	.	.
.	.	2c\	.	2A/	.	.	.
=128	=128	=128	=128	=128	=128	=128	=128
0D]	.	1B-	.	0d	.	0f]	.
.	.	1B-	-ti-	.	.	.	.
=129	=129	=129	=129	=129	=129	=129	=129
1r	.	[0Al	-um	[0c	.	1a	.
1A	vi-	.	.	.	.	[1cc	.
=130	=130	=130	=130	=130	=130	=130	=130
1.c	-ven-	0A_	.	0c_	.	2cc\]	.
.	.	.	.	.	.	2b-\	.
.	.	.	.	.	.	2.a/	.
2B-\	.	.	.	.	.	.	.
.	.	.	.	.	.	4g/	.
=131	=131	=131	=131	=131	=131	=131	=131
2.A\	.	0A_	.	0c]	.	2f/	.
.	.	.	.	.	.	2e/	.
4G\	.	.	.	.	.	.	.
2F\	.	.	.	.	.	2d/	.
2E\	.	.	.	.	.	2c/	.
=132	=132	=132	=132	=132	=132	=132	=132
0D	-ti-	0A_	.	1.A	.	1.f	.
.	.	.	.	2B-\	-ti-	4e/	-ti-
.	.	.	.	.	.	4d/	.
=133	=133	=133	=133	=133	=133	=133	=133
0AAl	-um	0A]	.	0cl	-um	0el	-um
==	==	==	==	==	==	==	==
*-	*-	*-	*-	*-	*-	*-	*-
!!!RDF**kern: l=long note in original notation
!!!RDF**kern: i=editorial accidental
!!!RDF**kern: V=start of tuplet marker
!!!RDF**kern: Z=end of tuplet marker
!!!ENC:	Jesse Rodin (8/15/2012)
!!!END:	2012/08/15/
!!!EED:	Jesse Rodin
!!!EEV:	2012/08/15/
!!attribution-level@Jos: 4 (questionable)
!!!ONB:	Translated from MusicXML and edited on 2012/08/15/ by Craig Sapp
!!muse2ps: C^@{COA}?\n@{SCT}^i2I150v85,85,85,130Q16
